X: 11192
M: C
L: 1/8
K: D
fg |\
afaf d2fd | ecec A2GF | GABc defg | ecAc d2fg |\
afaf d2fd | ecec A2GF | Ggbg fdec | d2d2 d2 :|
|: de |\
fdec B2ga | b2e2- e2cd | ecdB | A2fg | a2d2 d3A |\


